svgs/sharp-solid/tower-control.svg

<svg xmlns="http://www.w3.org/2000/svg" viewBox="0 0 448 512"><!--! Font Awesome Pro 6.6.0 by @fontawesome - https://fontawesome.com License - https://fontawesome.com/license (Commercial License) Copyright 2024 Fonticons, Inc. --><path d="M184 0L160 0l0 48 24 0 16 0 0 48-56 0-16 0 0 16 0 16-88 0-41 0L9 167.8 47 320l-31 0 0 64 32 0 32 0 0 128 288 0 0-128 32 0 32 0 0-64-31 0L439 167.8 449 128l-41 0-88 0 0-16 0-16-16 0-56 0 0-48 16 0 24 0 0-48L264 0 224 0 184 0zM128 320l-15 0-1.9-7.8L81 192l47 0 0 128zm48 0l0-128 96 0 0 128-96 0zm159 0l-15 0 0-128 47 0L337 312.2 335 320z"/></svg>

<svg xmlns="http://www.w3.org/2000/svg" viewBox="0 0 448 512"><!--! Font Awesome Pro 6.4.2 by @fontawesome - https://fontawesome.com License - https://fontawesome.com/license (Commercial License) Copyright 2023 Fonticons, Inc. --><path d="M184 0H160V48h24 16V96H144 128v16 16H40-1L9 167.8 47 320H16l0 64H48 80V512H368V384h32 32V320H401L439 167.8 449 128H408 320V112 96H304 248V48h16 24V0H264 224 184zM128 320H113l-1.9-7.8L81 192h47V320zm48 0V192h96V320H176zm159 0l-15 0V192h47L337 312.2 335 320z"/></svg>
